public/images/partner_Elevation_Church_logo.svg

<?xml version="1.0" encoding="UTF-8"?>
<!-- Created with Inkscape (http://www.inkscape.org/) -->
<svg width="158.75mm" height="38.635914mm" version="1.1" viewBox="0 0 158.75 38.635914" xml:space="preserve" xmlns="http://www.w3.org/2000/svg"><g transform="translate(13.745939,-105.28509)"><g transform="matrix(4.8449532,0,0,4.8449532,52.852494,-404.81622)" fill="#65646b"><path d="m1.1998275 113.1722c-0.086431 0.0437-0.26775833 0.0871-0.4967111 0.0871-0.52987221 0-0.92604165-0.32703-0.92604165-0.93169 0-0.57785 0.39863888-0.96485 0.98178054-0.96485 0.23177499 0 0.38241111 0.049 0.44661661 0.0819l-0.061383 0.19367c-0.089253-0.0437-0.22048609-0.0765-0.37676665-0.0765-0.44061943 0-0.73377776 0.27517-0.73377776 0.75777 0 0.45226 0.26528889 0.73801 0.72001943 0.73801 0.15063611 0 0.30127218-0.0296 0.39863888-0.0762z"/><path d="m3.1444444 111.393v0.76835h0.9094611v-0.76835h0.2455333v1.83656h-0.2455333v-0.86113h-0.9094611v0.86113h-0.2455333v-1.83656z"/><path d="m6.3584262 111.393v1.08973c0 0.40887 0.1869722 0.58314 0.43815 0.58314 0.276225 0 0.4575528-0.17956 0.4575528-0.58314v-1.08973h0.2455333v1.0735c0 0.56409-0.3040945 0.79305-0.7115528 0.79305-0.3848805 0-0.6752166-0.21273-0.6752166-0.78493v-1.08162z"/><path d="m9.3158328 111.42027c0.1227667-0.0247 0.3012722-0.0409 0.4660194-0.0409 0.2592918 0 0.4296838 0.049 0.5468058 0.15275 0.09207 0.079 0.147814 0.20426 0.147814 0.34854 0 0.23989-0.159103 0.40041-0.354189 0.46602v8e-3c0.142169 0.049 0.2286 0.17991 0.275872 0.37077 0.06174 0.25611 0.106186 0.43321 0.142522 0.50376h-0.251178c-0.03069-0.0515-0.07267-0.20955-0.122766-0.4385-0.05574-0.25329-0.159103-0.3489-0.3795891-0.35701h-0.2286v0.79551h-0.2427111zm0.2427111 0.83361h0.2483556c0.2592915 0 0.4240385-0.13899 0.4240385-0.34854 0-0.23707-0.175683-0.34078-0.4325052-0.34078-0.1171222 0-0.1979083 0.0109-0.2398889 0.0219z"/><path d="m13.53128 113.1722c-0.08643 0.0437-0.267758 0.0871-0.496358 0.0871-0.530225 0-0.926395-0.32703-0.926395-0.93169 0-0.57785 0.398992-0.96485 0.982134-0.96485 0.231422 0 0.382058 0.049 0.446263 0.0819l-0.06138 0.19367c-0.08925-0.0437-0.220486-0.0765-0.376767-0.0765-0.440619 0-0.733777 0.27517-0.733777 0.75777 0 0.45226 0.265289 0.73801 0.720019 0.73801 0.150636 0 0.301272-0.0296 0.398992-0.0762z"/><path d="m15.475756 111.393v0.76835h0.909814v-0.76835h0.24518v1.83656h-0.24518v-0.86113h-0.909814v0.86113h-0.245181v-1.83656z"/></g><path d="m20.700008 111.71233c7.286284 7.93918 6.607735 20.1411-1.498962 27.2377-8.116951 7.10507-20.6025956 6.42654-27.888882-1.51095-7.287992-7.93918-6.623119-20.13771 1.495545-27.24453 8.10498659-7.09654 20.604305-6.4214 27.892299 1.51778m-28.6152872 16.30225 6.95299241 0.1812 6.88974999-8.61093 6.9547008 8.61093 6.836768-0.0548-14.0358833-17.67647z" fill="#fd671a"/><g transform="matrix(4.8449532,0,0,4.8449532,52.852494,-404.81622)" fill="#353a34"><path d="m-1.0955916 106.52079h-2.2715361v0.91969h2.0852694v0.75495h-2.0852694v1.1183h2.3763111v0.78317h-3.2508472v-4.34799h3.1460722z"/><path d="m0.18957777 110.0969h-0.82973332v-4.34234h0.82973332z"/><path d="m2.7659138 106.94405c0.2211917 0.10054 0.4039305 0.25894 0.5478639 0.4759 0.1298222 0.1912 0.2141361 0.41275 0.2525889 0.66498 0.022225 0.14782 0.031397 0.36054 0.027164 0.63818h-2.3085779c0.0127 0.32314 0.1234722 0.54927 0.3323167 0.67945 0.1266472 0.0808 0.2794 0.121 0.4579055 0.121 0.1894417 0 0.3432528-0.049 0.4614333-0.14746 0.064558-0.0533 0.1213556-0.127 0.1710973-0.22154h0.8417277c-0.022225 0.19085-0.1248833 0.38452-0.3072694 0.58137-0.2839861 0.31256-0.6815667 0.46884-1.1923889 0.46884-0.4219222 0-0.7941027-0.13193-1.11654162-0.39581-0.32243888-0.26388-0.48365832-0.69321-0.48365832-1.28764 0-0.55739 0.14569722-0.98496 0.43673888-1.282 0.29139446-0.29739 0.66921946-0.44591 1.13382776-0.44591 0.2758722 0 0.5245805 0.0501 0.7457722 0.15064m-1.2375444 0.72813c-0.117475 0.1203-0.1908528 0.28328-0.2211917 0.48895h1.4294555c-0.015169-0.21907-0.0889-0.38558-0.2211916-0.49918-0.1322917-0.11359-0.2959806-0.17039-0.492125-0.17039-0.212725 0-0.377825 0.06-0.4949472 0.18062"/><path d="m5.6783765 106.8784h0.8911166l-1.1479388 3.21839h-0.8748889l-1.1377083-3.21839h0.9320389l0.6607527 2.37419z"/><path d="m8.0001129 108.14142c0.1545167-0.0198 0.2649361-0.0441 0.3316111-0.0737 0.1192389-0.0511 0.1792111-0.13088 0.1792111-0.23918 0-0.13194-0.045861-0.22296-0.1375833-0.27305-0.091722-0.0501-0.2261306-0.0755-0.4035778-0.0755-0.1989667 0-0.3400778 0.0494-0.4226278 0.14782-0.059267 0.0727-0.098425 0.17109-0.1181805 0.29527h-0.8015111c0.017639-0.28152 0.095603-0.51259 0.2342444-0.69356 0.2201334-0.28328 0.5990167-0.42474 1.1352389-0.42474 0.34925 0 0.6596944 0.0699 0.9309805 0.20919 0.2709334 0.1397 0.4067528 0.40323 0.4067528 0.79128v1.47673c0 0.10231 0.00176 0.22648 0.00564 0.37218 6e-3 0.10901 0.022578 0.18274 0.050095 0.22155 0.027517 0.0391 0.068792 0.0713 0.123825 0.0963v0.12489h-0.9052239c-0.025047-0.0649-0.042686-0.12594-0.052564-0.18309-0.00953-0.0572-0.017286-0.12207-0.023283-0.19474-0.1153583 0.1263-0.2480028 0.23425-0.3982861 0.32315-0.1795639 0.10442-0.3831167 0.15698-0.6092472 0.15698-0.2892778 0-0.5281083-0.0832-0.7164917-0.24941-0.1883833-0.16651-0.2825749-0.40217-0.2825749-0.70732 0-0.39546 0.1516944-0.68192 0.4550833-0.85901 0.1661583-0.0963 0.4109861-0.16546 0.7337777-0.20673zm0.5076472 0.39194c-0.053269 0.0332-0.1068917 0.0603-0.1612194 0.0811-0.053975 0.0205-0.1284111 0.0399-0.2229556 0.0571l-0.1890889 0.0356c-0.1774472 0.0314-0.3048 0.0699-0.3820583 0.115-0.1308805 0.0765-0.1964972 0.19544-0.1964972 0.35666 0 0.14358 0.039864 0.2473 0.1199444 0.31115 0.080081 0.0642 0.1770945 0.096 0.2917472 0.096 0.1816806 0 0.3488973-0.0529 0.5020028-0.15945 0.1527528-0.10583 0.2321278-0.29951 0.238125-0.58067z"/><path d="m9.4330962 107.50282v-0.5902h0.4430889l0.013758-0.52846 0.8099779-0.3743v0.90276h0.515761v0.5902h-0.515761v1.70744c0 0.1323 0.01658 0.21485 0.04939 0.2473 0.03316 0.0328 0.134056 0.049 0.303036 0.049 0.0254 0 0.05221-1e-3 0.08043-3e-3 0.02787-2e-3 0.05574-5e-3 0.0829-8e-3v0.63006l-0.394052 0.0169c-0.392995 0.0138-0.661459-0.0554-0.805392-0.20708-0.093486-0.0967-0.1400532-0.24553-0.1400532-0.44697v-1.98543z"/><path d="m12.292677 106.50386h-0.841022v-0.77752h0.841022zm-0.841022 0.37465h0.841022v3.21839h-0.841022z"/><path d="m15.452332 109.70299c-0.267758 0.33443-0.674864 0.50165-1.220611 0.50165s-0.952853-0.16722-1.220964-0.50165c-0.267758-0.33443-0.401814-0.73731-0.401814-1.20826 0-0.4632 0.134056-0.86431 0.401814-1.20368 0.268111-0.33937 0.675217-0.50906 1.220964-0.50906s0.952853 0.16969 1.220611 0.50906c0.268111 0.33937 0.402167 0.74048 0.402167 1.20368 0 0.47095-0.134056 0.87383-0.402167 1.20826m-0.662164-0.45896c0.130175-0.17498 0.195439-0.42404 0.195439-0.74648s-0.06526-0.5708-0.195439-0.74507c-0.130175-0.17392-0.316794-0.26105-0.559858-0.26105s-0.430036 0.0871-0.56127 0.26105c-0.131233 0.17427-0.19685 0.42263-0.19685 0.74507s0.06562 0.5715 0.19685 0.74648c0.131234 0.17497 0.318206 0.26246 0.56127 0.26246s0.429683-0.0875 0.559858-0.26246"/><path d="m18.708259 107.06573c0.208139 0.17427 0.311856 0.46284 0.311856 0.86572v2.16535h-0.851959v-1.95651c0-0.16933-0.02222-0.29915-0.06632-0.38947-0.08079-0.16545-0.234597-0.248-0.461786-0.248-0.278695 0-0.470253 0.121-0.57397 0.36301-0.05398 0.12771-0.08079 0.29104-0.08079 0.48966v1.74131h-0.829733v-3.20711h0.801511v0.46638c0.106539-0.1651 0.207081-0.28399 0.301978-0.35666 0.170039-0.12982 0.385939-0.19474 0.646994-0.19474 0.327025 0 0.594078 0.0871 0.802217 0.26106"/></g></g></svg>

<?xml version="1.0" encoding="UTF-8" standalone="no"?>
<!DOCTYPE svg PUBLIC "-//W3C//DTD SVG 1.1//EN" "http://www.w3.org/Graphics/SVG/1.1/DTD/svg11.dtd">
<svg width="100%" height="100%" viewBox="0 0 450 110" version="1.1" xmlns="http://www.w3.org/2000/svg" xmlns:xlink="http://www.w3.org/1999/xlink" xml:space="preserve" xmlns:serif="http://www.serif.com/" style="fill-rule:evenodd;clip-rule:evenodd;stroke-linejoin:round;stroke-miterlimit:2;">
    <g transform="matrix(2.83465,0,0,2.83465,38.9649,-298.446)">
        <g transform="matrix(4.84495,0,0,4.84495,52.8525,-404.816)">
            <path d="M1.2,113.172C1.113,113.216 0.932,113.259 0.703,113.259C0.173,113.259 -0.223,112.932 -0.223,112.328C-0.223,111.75 0.176,111.363 0.759,111.363C0.991,111.363 1.141,111.412 1.205,111.445L1.144,111.638C1.055,111.595 0.924,111.562 0.767,111.562C0.327,111.562 0.034,111.837 0.034,112.32C0.034,112.772 0.299,113.058 0.754,113.058C0.904,113.058 1.055,113.028 1.152,112.981L1.2,113.172Z" style="fill:white;fill-rule:nonzero;"/>
            <path d="M3.144,111.393L3.144,112.161L4.054,112.161L4.054,111.393L4.299,111.393L4.299,113.23L4.054,113.23L4.054,112.368L3.144,112.368L3.144,113.23L2.899,113.23L2.899,111.393L3.144,111.393Z" style="fill:white;fill-rule:nonzero;"/>
            <path d="M6.358,111.393L6.358,112.483C6.358,112.892 6.545,113.066 6.797,113.066C7.073,113.066 7.254,112.886 7.254,112.483L7.254,111.393L7.5,111.393L7.5,112.467C7.5,113.031 7.196,113.26 6.788,113.26C6.403,113.26 6.113,113.047 6.113,112.475L6.113,111.393L6.358,111.393Z" style="fill:white;fill-rule:nonzero;"/>
            <path d="M9.316,111.42C9.439,111.396 9.617,111.379 9.782,111.379C10.041,111.379 10.212,111.428 10.329,111.532C10.421,111.611 10.476,111.736 10.476,111.881C10.476,112.121 10.317,112.281 10.122,112.347L10.122,112.355C10.264,112.404 10.351,112.535 10.398,112.725C10.46,112.982 10.504,113.159 10.541,113.229L10.289,113.229C10.259,113.178 10.217,113.02 10.167,112.791C10.111,112.537 10.008,112.442 9.787,112.434L9.559,112.434L9.559,113.229L9.316,113.229L9.316,111.42ZM9.559,112.254L9.807,112.254C10.066,112.254 10.231,112.115 10.231,111.905C10.231,111.668 10.055,111.565 9.798,111.565C9.681,111.565 9.601,111.575 9.559,111.586L9.559,112.254Z" style="fill:white;fill-rule:nonzero;"/>
            <path d="M13.531,113.172C13.445,113.216 13.264,113.259 13.035,113.259C12.505,113.259 12.109,112.932 12.109,112.328C12.109,111.75 12.508,111.363 13.091,111.363C13.322,111.363 13.473,111.412 13.537,111.445L13.476,111.638C13.386,111.595 13.255,111.562 13.099,111.562C12.658,111.562 12.365,111.837 12.365,112.32C12.365,112.772 12.63,113.058 13.085,113.058C13.236,113.058 13.386,113.028 13.484,112.981L13.531,113.172Z" style="fill:white;fill-rule:nonzero;"/>
            <path d="M15.476,111.393L15.476,112.161L16.386,112.161L16.386,111.393L16.631,111.393L16.631,113.23L16.386,113.23L16.386,112.368L15.476,112.368L15.476,113.23L15.231,113.23L15.231,111.393L15.476,111.393Z" style="fill:white;fill-rule:nonzero;"/>
        </g>
        <path d="M20.7,111.712C27.986,119.652 27.308,131.853 19.201,138.95C11.084,146.055 -1.402,145.377 -8.688,137.439C-15.976,129.5 -15.311,117.301 -7.192,110.195C0.913,103.098 13.412,103.773 20.7,111.712M-7.915,128.015L-0.962,128.196L5.927,119.585L12.882,128.196L19.719,128.141L5.683,110.465L-7.915,128.015Z" style="fill:rgb(253,103,26);fill-rule:nonzero;"/>
        <g transform="matrix(4.84495,0,0,4.84495,52.8525,-404.816)">
            <path d="M-1.096,106.521L-3.367,106.521L-3.367,107.44L-1.282,107.44L-1.282,108.195L-3.367,108.195L-3.367,109.314L-0.991,109.314L-0.991,110.097L-4.242,110.097L-4.242,105.749L-1.096,105.749L-1.096,106.521Z" style="fill:white;fill-rule:nonzero;"/>
            <rect x="-0.64" y="105.755" width="0.83" height="4.342" style="fill:white;fill-rule:nonzero;"/>
            <path d="M2.766,106.944C2.987,107.045 3.17,107.203 3.314,107.42C3.444,107.611 3.528,107.833 3.566,108.085C3.589,108.233 3.598,108.445 3.594,108.723L1.285,108.723C1.298,109.046 1.408,109.272 1.617,109.403C1.744,109.483 1.897,109.524 2.075,109.524C2.265,109.524 2.418,109.475 2.537,109.376C2.601,109.323 2.658,109.249 2.708,109.155L3.549,109.155C3.527,109.345 3.425,109.539 3.242,109.736C2.958,110.048 2.561,110.205 2.05,110.205C1.628,110.205 1.256,110.073 0.933,109.809C0.611,109.545 0.45,109.116 0.45,108.521C0.45,107.964 0.595,107.536 0.886,107.239C1.178,106.942 1.556,106.793 2.02,106.793C2.296,106.793 2.545,106.844 2.766,106.944M1.528,107.672C1.411,107.792 1.338,107.955 1.307,108.161L2.737,108.161C2.721,107.942 2.648,107.776 2.515,107.662C2.383,107.548 2.219,107.492 2.023,107.492C1.811,107.492 1.645,107.552 1.528,107.672" style="fill:white;fill-rule:nonzero;"/>
            <path d="M5.678,106.878L6.569,106.878L5.422,110.097L4.547,110.097L3.409,106.878L4.341,106.878L5.002,109.253L5.678,106.878Z" style="fill:white;fill-rule:nonzero;"/>
            <path d="M8,108.141C8.155,108.122 8.265,108.097 8.332,108.068C8.451,108.017 8.511,107.937 8.511,107.829C8.511,107.697 8.465,107.606 8.373,107.555C8.282,107.505 8.147,107.48 7.97,107.48C7.771,107.48 7.63,107.529 7.547,107.628C7.488,107.701 7.449,107.799 7.429,107.923L6.627,107.923C6.645,107.642 6.723,107.41 6.862,107.23C7.082,106.946 7.461,106.805 7.997,106.805C8.346,106.805 8.657,106.875 8.928,107.014C9.199,107.154 9.335,107.417 9.335,107.805L9.335,109.282C9.335,109.384 9.336,109.508 9.34,109.654C9.346,109.763 9.363,109.837 9.39,109.876C9.418,109.915 9.459,109.947 9.514,109.972L9.514,110.097L8.609,110.097C8.584,110.032 8.566,109.971 8.556,109.914C8.547,109.857 8.539,109.792 8.533,109.719C8.418,109.845 8.285,109.953 8.135,110.042C7.955,110.147 7.752,110.199 7.526,110.199C7.236,110.199 6.998,110.116 6.809,109.95C6.621,109.783 6.527,109.548 6.527,109.242C6.527,108.847 6.678,108.561 6.982,108.383C7.148,108.287 7.393,108.218 7.715,108.177L8,108.141ZM8.508,108.533C8.454,108.567 8.401,108.594 8.347,108.614C8.293,108.635 8.218,108.654 8.124,108.672L7.934,108.707C7.757,108.739 7.63,108.777 7.552,108.822C7.422,108.899 7.356,109.018 7.356,109.179C7.356,109.322 7.396,109.426 7.476,109.49C7.556,109.554 7.653,109.586 7.768,109.586C7.949,109.586 8.117,109.533 8.27,109.427C8.422,109.321 8.502,109.127 8.508,108.846L8.508,108.533Z" style="fill:white;fill-rule:nonzero;"/>
            <path d="M9.433,107.503L9.433,106.913L9.876,106.913L9.89,106.384L10.7,106.01L10.7,106.913L11.216,106.913L11.216,107.503L10.7,107.503L10.7,109.21C10.7,109.343 10.717,109.425 10.749,109.458C10.782,109.49 10.883,109.507 11.052,109.507C11.078,109.507 11.105,109.506 11.133,109.504C11.161,109.502 11.189,109.499 11.216,109.496L11.216,110.126L10.822,110.143C10.429,110.156 10.16,110.087 10.016,109.935C9.923,109.839 9.876,109.69 9.876,109.488L9.876,107.503L9.433,107.503Z" style="fill:white;fill-rule:nonzero;"/>
            <path d="M12.293,106.504L11.452,106.504L11.452,105.726L12.293,105.726L12.293,106.504ZM11.452,106.879L12.293,106.879L12.293,110.097L11.452,110.097L11.452,106.879Z" style="fill:white;fill-rule:nonzero;"/>
            <path d="M15.452,109.703C15.185,110.037 14.777,110.205 14.232,110.205C13.686,110.205 13.279,110.037 13.011,109.703C12.743,109.369 12.609,108.966 12.609,108.495C12.609,108.032 12.743,107.63 13.011,107.291C13.279,106.952 13.686,106.782 14.232,106.782C14.777,106.782 15.185,106.952 15.452,107.291C15.72,107.63 15.854,108.032 15.854,108.495C15.854,108.966 15.72,109.369 15.452,109.703M14.79,109.244C14.92,109.069 14.986,108.82 14.986,108.498C14.986,108.175 14.92,107.927 14.79,107.752C14.66,107.579 14.473,107.491 14.23,107.491C13.987,107.491 13.8,107.579 13.669,107.752C13.538,107.927 13.472,108.175 13.472,108.498C13.472,108.82 13.538,109.069 13.669,109.244C13.8,109.419 13.987,109.506 14.23,109.506C14.473,109.506 14.66,109.419 14.79,109.244" style="fill:white;fill-rule:nonzero;"/>
            <path d="M18.708,107.066C18.916,107.24 19.02,107.529 19.02,107.931L19.02,110.097L18.168,110.097L18.168,108.14C18.168,107.971 18.146,107.841 18.102,107.751C18.021,107.585 17.867,107.503 17.64,107.503C17.361,107.503 17.17,107.624 17.066,107.866C17.012,107.994 16.985,108.157 16.985,108.355L16.985,110.097L16.156,110.097L16.156,106.89L16.957,106.89L16.957,107.356C17.064,107.191 17.164,107.072 17.259,106.999C17.429,106.87 17.645,106.805 17.906,106.805C18.233,106.805 18.5,106.892 18.708,107.066" style="fill:white;fill-rule:nonzero;"/>
        </g>
    </g>
</svg>
